X: 16417
T: Gypsy, The
R: hornpipe
M: 4/4
K: Gmajor
|:BAGF|GA (3B^cd g2 (3B^cd|gdBd ecAG|FGAB cAFA|GBDG BAGF|
GA (3B^cd g2(3B^cd|gdBd ecAG|1 FBAF G2BA|G2 DG:|2 FBAF GBAF|G2 (3EFG||
K: Dmaj
|:ABAG (3FGA de|fgfe (3ded cd|eA (3A^GA =gfed|eA (3A^GA =gfeG|
ABAG (3FGA de|fgfe defg|(3aba (3gbg (3fgf (3ege|1 dfec d2 (3EFG:|2 (3ded (3cdc (3BcB (3ABA||

